picto/reservation.svg

<svg class="color-immutable" width="24" height="24" viewBox="0 0 24 24" fill="none" xmlns="http://www.w3.org/2000/svg"><g clip-path="url(#a)"><path d="M0 22.5v-21C0 .675.675 0 1.5 0h21c.825 0 1.5.675 1.5 1.5v21c0 .825-.675 1.5-1.5 1.5h-21C.675 24 0 23.325 0 22.5Z" fill="#2D327D"/><path d="M12 3a9 9 0 1 0 0 18 9 9 0 0 0 0-18Zm3.75 8.133a1.864 1.864 0 0 1-1.844-2.135c-.818.489-1.385 1.664-1.385 2.899v4.545h1.156a.375.375 0 0 1 0 .751H12.52l-3.406.001-1.187-.001a.376.376 0 0 1 0-.751h1.187V8.283H7.927a.375.375 0 0 1 0-.75h4.593v1.888c.532-.772 1.58-2.017 3.229-2.017a1.864 1.864 0 0 1 .001 3.729Z" fill="#fff"/></g><defs><clipPath id="a"><path fill="#fff" d="M0 0h24v24H0z"/></clipPath></defs></svg>

<svg class="color-immutable" width="24" height="24" viewBox="0 0 24 24" fill="none" xmlns="http://www.w3.org/2000/svg"><path d="M0 22.5V1.5C0 0.675 0.675 0 1.5 0H22.5C23.325 0 24 0.675 24 1.5V22.5C24 23.325 23.325 24 22.5 24H1.5C0.675 24 0 23.325 0 22.5Z" fill="#2D327D"/><path d="M12 3C7.029 3 3 7.03 3 12C3 16.97 7.03 21 12 21C16.971 21 21 16.97 21 12C21 7.029 16.971 3 12 3ZM15.75 11.133C14.721 11.133 13.886 10.299 13.886 9.269C13.886 9.177 13.893 9.087 13.906 8.998C13.088 9.487 12.521 10.662 12.521 11.897V16.442H13.677C13.884 16.442 14.052 16.61 14.052 16.817C14.052 17.024 13.884 17.193 13.677 17.193H12.52L9.114 17.194L7.927 17.193C7.72 17.193 7.552 17.024 7.552 16.817C7.552 16.61 7.719 16.442 7.927 16.442H9.114V8.283H7.927C7.72 8.283 7.552 8.115 7.552 7.908C7.552 7.7 7.719 7.533 7.927 7.533H12.52V9.421C13.052 8.649 14.1 7.404 15.749 7.404C16.779 7.404 17.613 8.239 17.613 9.268C17.614 10.299 16.779 11.133 15.75 11.133Z" fill="white"/></svg>
